X:1
T:PS 102:beni sois tu seigneur dieu de tendresse et d'amour
T:Cote/Txt/Mus: PS102 / -/- 
%%score { ( 1 2 ) | ( 3 4 ) }
L:1/8
Q:3/8=65
M:9/8
K:B
V:1 treble nm="Piano" snm="Pno"
V:2 treble 
V:3 bass 
V:4 bass 
V:1
"B" FFF"Abm" G2 G"F#" A3 |"E" GGG"Em" =GGF"B" F3 |] %2
w: be ni sois tu sei gneur|dieu de ten dresse et da mour|
V:2
 DDD D2 D D3 | EEE EEE D3 |] %2
V:3
 B,B,B, B,2 B, B,3 | B,B,B, CB,A, C3 |] %2
V:4
 B,B,A, G,2 G, F,3 | F,F,F, F,F,F, B,3 |] %2

